X:1
T:Title
%%score { ( 1 3 ) | ( 2 4 ) }
L:1/8
Q:1/4=100
M:4/4
K:Ab
V:1 treble nm="Grand Piano"
V:3 treble 
V:2 bass 
V:4 bass 
V:1
 [CA][CA][EG][DF] [CE]2 [EA][FB] | [Ec]2 [DB]2 [CA]4 | [EG][DF][FA][DF] [CE]2 [EA]2 | z4 B4 | %4
w: Robert~Lowry * * * * * *||||
 [CA][CA][EG][DF] [CE]2 [CEA]2 | [A,DF][DFB][CEA][B,DG] [A,CA]4 | %6
w: ||
 [A,DF][B,EG][A,EA][FB] [Ec]2 [DB]2 | [CA]6 z2 | [EB]2 [=Ec]>[Ec] [Fd]4 | [CA]2 [FB]>[FB] [=Ec]4 | %10
w: ||||
 [Ec]2 [FA][DF] [CE]2 [EA][Ec] | c2 B4 EE | [CE][EA][DG][CA] B2 EE | EBAB [Ec]2 [FA][FA] | %14
w: ||||
 [Fd]2 [EFc][DFB] [CEA]2 [B,EG][DEB] | [DEB]2 [CEA]4 z2 |] %16
w: ||
V:2
 [A,,A,][A,,A,][A,,A,][A,,A,] [A,,A,]2 [C,A,][D,A,] | [E,A,]2 [E,G,]2 [A,,A,]4 | %2
 [D,A,][D,A,][D,A,][D,A,] [A,,A,]2 [C,A,]2 | [E,-E]6 E,2 | %4
 [A,,A,][A,,A,][A,,A,][A,,A,] [A,,A,]2 A,,2 | D,D,E,=E, F,4 | D,B,,C,[D,A,] [E,A,]2 [E,G,]2 | %7
 [A,,A,]6 z2 | [E,G,]2 [C,G,]>[C,G,] [B,,B,]4 | [F,A,]2 [D,F,]>[D,F,] [C,G,]4 | %10
 [A,,A,]2 [D,A,][D,A,] [A,,A,]2 [C,A,][A,,A,] | [E,A,E]2 [E,G,E]4 [E,G,][E,G,D] | %12
 [A,,A,][C,A,][B,,E,][A,,A,] [E,G,D]2 [E,G,D][E,G,D] | %13
 [E,G,D][E,G,D][F,A,C][E,G,E] [A,,A,]2 [D,A,][D,A,] | [B,,B,]2 C,D, E,2 E,E, | A,,2 A,,4 z2 |] %16
V:3
 x8 | x8 | x8 | c4 z2 D2 | x8 | x8 | x8 | x8 | x8 | x8 | x8 | x8 | x8 | x8 | x8 | x8 |] %16
V:4
 x8 | x8 | x8 | A,4 G,4 | x8 | x8 | x8 | x8 | x8 | x8 | x8 | x8 | x8 | x8 | x8 | x8 |] %16

